X:1
T:Connaughtman's Rambles in Em
%%composerspace
%%subtitlespace
C:from the lilting of Sally Sloane
%%musicspace
M:6/8
K:Dmaj
|:B>ee B>dd|BeB dBA|B>ee B>dd|BAB d2A|
B>ee B>dd|Bec dBA|d>BA GAB|AGE E2D||
B,DD GDD|EDE GDD|B,2D GAB|AGE E2D|
B,2D GDD|EDE GDD|B,2D GAB|AGE E3:|T:standard session format: transposed and parts reversed
K:Amaj
|:FAA dAA|BAB dAA|F2A def|edB B2A|
|F2A dAA|BAB dAA|F2A def|edB B3:|
|:f>bb f>aa|fbf afe|f>bb f>aa|fef a2e|
|f>bb f>aa|fbg afe|a>fe def|edB B2A:|